src/basic/800/u1F6C8-info.svg

<svg width="15" height="16" viewBox="0 0 15 16" fill="none" xmlns="http://www.w3.org/2000/svg">
<path fill-rule="evenodd" clip-rule="evenodd" d="M7.50003,2.46744c-3.05774,0 -5.53653,2.47879 -5.53653,5.53653c0,3.05773 2.47879,5.53653 5.53653,5.53653c3.05777,0 5.53657,-2.4788 5.53657,-5.53653c0,-3.05774 -2.4788,-5.53653 -5.53657,-5.53653zM0.9635,8.00397c0,-3.61003 2.92651,-6.53653 6.53653,-6.53653c3.61007,0 6.53657,2.9265 6.53657,6.53653c0,3.61003 -2.9265,6.53653 -6.53657,6.53653c-3.61002,0 -6.53653,-2.9265 -6.53653,-6.53653zM8,5.5c0,0.27614 -0.22386,0.5 -0.5,0.5c-0.27614,0 -0.5,-0.22386 -0.5,-0.5c0,-0.27614 0.22386,-0.5 0.5,-0.5c0.27614,0 0.5,0.22386 0.5,0.5zM7,7.5c0,-0.27614 0.22386,-0.5 0.5,-0.5c0.27614,0 0.5,0.22386 0.5,0.5v3.5c0,0.2761 -0.22386,0.5 -0.5,0.5c-0.27614,0 -0.5,-0.2239 -0.5,-0.5z" fill="black"/>
</svg>

<svg width="15" height="16" viewBox="0 0 15 16" fill="none" xmlns="http://www.w3.org/2000/svg">
<path fill-rule="evenodd" clip-rule="evenodd" d="M7.50003 2.46744C4.44229 2.46744 1.9635 4.94623 1.9635 8.00397C1.9635 11.0617 4.44229 13.5405 7.50003 13.5405C10.5578 13.5405 13.0366 11.0617 13.0366 8.00397C13.0366 4.94623 10.5578 2.46744 7.50003 2.46744ZM0.963501 8.00397C0.963501 4.39394 3.89001 1.46744 7.50003 1.46744C11.1101 1.46744 14.0366 4.39394 14.0366 8.00397C14.0366 11.614 11.1101 14.5405 7.50003 14.5405C3.89001 14.5405 0.963501 11.614 0.963501 8.00397ZM8 5.5C8 5.77614 7.77614 6 7.5 6C7.22386 6 7 5.77614 7 5.5C7 5.22386 7.22386 5 7.5 5C7.77614 5 8 5.22386 8 5.5ZM7 11C7 11.2761 7.22386 11.5 7.5 11.5C7.77614 11.5 8 11.2761 8 11V7.5C8 7.22386 7.77614 7 7.5 7C7.22386 7 7 7.22386 7 7.5V11Z" fill="black"/>
</svg>
